X: 9
T: Rakish Paddy
R: reel
M: 4/4
L: 1/8
K: Ador
c3 B c2 AB|cBAG EG G2|Add^c dcAd|dcAG FGAB|
c3d c2 AB|cBBG EFGE|D2 D2 ABcA|dcAG FD D2:|
|:eg g2 ag g2|eg g2 ed (3B^cd|ea a2 ba a2|eaag ed (3B^cd|
eg g2 ag g2|effe defg|af (3gfe fdec|dcAG FD D2:|
cAAB cAAB|cAAG ED D2|d^cec d^cec|d=cAG (3EFG AB|
cAAB cAdB|cAAG EFGE|D2 D2 ABcA|1 dcAG FGAB:|2 dcAG FD D2||
|:eg g2 eg g2|eg g2 ed (3Bcd|ea a2 ba a2|eaag ed (3Bcd|
ef (3gfe af (3gfe|fdec defg|af (3gfe (3fed e^c|1 dcAG FD D2:|2 dcAG FGAB||


Tune 86	Setting 12605

